X:78
T:Calder Fair
O:No 78 Wm Clarke MS  Feltwell, Norfolk
N:Pencil comment in MS "Good"
I:abc2nwc
M:2/4
L:1/16
K:G
gfed egB2|BBBG d2d2|gfed egB2|ABcd e4:|
|:dgga g2g2|eaab a2ab|c'bag gfed|egfa g4:||

